svgs/duotone/square-7.svg

<svg xmlns="http://www.w3.org/2000/svg" viewBox="0 0 448 512"><!--! Font Awesome Pro 6.3.0 by @fontawesome - https://fontawesome.com License - https://fontawesome.com/license (Commercial License) Copyright 2023 Fonticons, Inc. --><defs><style>.fa-secondary{opacity:.4}</style></defs><path class="fa-primary" d="M316.6 139.7c4.344 7.25 4.531 16.25 .5313 23.69l-112 208C200.8 379.4 192.5 384 183.1 384c-3.844 0-7.719-.9062-11.34-2.875c-11.69-6.281-16.03-20.84-9.75-32.5L255.8 176H152C138.8 176 128 165.3 128 152S138.8 128 152 128h144C304.4 128 312.3 132.4 316.6 139.7z"/><path class="fa-secondary" d="M384 32H64C28.65 32 0 60.65 0 96v320c0 35.35 28.65 64 64 64h320c35.35 0 64-28.65 64-64V96C448 60.65 419.3 32 384 32zM317.1 163.4l-112 208C200.8 379.4 192.5 384 183.1 384c-3.844 0-7.719-.9062-11.34-2.875c-11.69-6.281-16.03-20.84-9.75-32.5L255.8 176H152C138.8 176 128 165.3 128 152S138.8 128 152 128h144c8.438 0 16.28 4.438 20.59 11.69C320.9 146.9 321.1 155.9 317.1 163.4z"/></svg>

<svg xmlns="http://www.w3.org/2000/svg" viewBox="0 0 448 512"><!-- Font Awesome Pro 6.0.0-alpha2 by @fontawesome - https://fontawesome.com License - https://fontawesome.com/license (Commercial License) --><defs><style>.fa-secondary{opacity:.4}</style></defs><path d="M384 32H64C28.654 32 0 60.654 0 96V416C0 451.346 28.654 480 64 480H384C419.346 480 448 451.346 448 416V96C448 60.654 419.346 32 384 32ZM317.125 163.375L205.125 371.375C200.781 379.438 192.531 384 183.969 384C180.125 384 176.25 383.094 172.625 381.125C160.937 374.844 156.594 360.281 162.875 348.625L255.812 176H152C138.75 176 128 165.25 128 152S138.75 128 152 128H296C304.438 128 312.281 132.438 316.594 139.688C320.938 146.938 321.125 155.938 317.125 163.375Z" class="fa-secondary"/><path d="M316.594 139.688C320.938 146.938 321.125 155.938 317.125 163.375L205.125 371.375C200.781 379.438 192.531 384 183.969 384C180.125 384 176.25 383.094 172.625 381.125C160.937 374.844 156.594 360.281 162.875 348.625L255.812 176H152C138.75 176 128 165.25 128 152S138.75 128 152 128H296C304.438 128 312.281 132.438 316.594 139.688Z" class="fa-primary"/></svg>
